icons/circle/48/wifiguard.svg

<svg xmlns="http://www.w3.org/2000/svg" viewBox="0 0 48 48">
  <defs>
    <linearGradient id="a" x1="1" x2="47" gradientUnits="userSpaceOnUse" gradientTransform="translate(-48)">
      <stop stop-color="#467f34"/>
      <stop offset="1" stop-color="#4e8e3a"/>
    </linearGradient>
  </defs>
  <path d="M36.31 5c5.859 4.062 9.688 10.831 9.688 18.5 0 12.426-10.07 22.5-22.5 22.5-7.669 0-14.438-3.828-18.5-9.688a23.24 23.24 0 0 0 3.781 4.969 22.923 22.923 0 0 0 15.469 5.969c12.703 0 23-10.298 23-23a22.92 22.92 0 0 0-5.969-15.469A23.216 23.216 0 0 0 36.31 5zm4.969 3.781A22.911 22.911 0 0 1 47.498 24.5c0 12.703-10.297 23-23 23a22.909 22.909 0 0 1-15.719-6.219C12.939 45.425 18.662 48 24.998 48c12.703 0 23-10.298 23-23 0-6.335-2.575-12.06-6.719-16.219z" opacity=".05"/>
  <path d="M41.28 8.781a22.923 22.923 0 0 1 5.969 15.469c0 12.703-10.297 23-23 23A22.92 22.92 0 0 1 8.78 41.281 22.911 22.911 0 0 0 24.499 47.5c12.703 0 23-10.298 23-23A22.909 22.909 0 0 0 41.28 8.781z" opacity=".1"/>
  <path d="M31.25 2.375C39.865 5.529 46 13.792 46 23.505c0 12.426-10.07 22.5-22.5 22.5-9.708 0-17.971-6.135-21.12-14.75a23 23 0 0 0 44.875-7 23 23 0 0 0-16-21.875z" opacity=".2"/>
  <circle cx="-24" cy="24" r="23" transform="rotate(-90)" fill="url(#a)"/>
  <path d="M40.03 7.531A22.922 22.922 0 0 1 45.999 23c0 12.703-10.297 23-23 23A22.92 22.92 0 0 1 7.53 40.031C11.708 44.322 17.54 47 23.999 47c12.703 0 23-10.298 23-23 0-6.462-2.677-12.291-6.969-16.469z" opacity=".1"/>
  <path d="M18.5 11C17 11 16 22 16 29c0 2.095 0 7 1 7v-2c.799 1.413 2.242 2.768 3.699 3.41-.535.258-.825.618-.768.883.141.644 1.112-.586 1.398.412.104.361.769.339.926.094.702-1.092 1.163.359 1.645-.229.493-.602 1.258-.704 1.891-.039.514.539 1-.807 1.703.285.157.245.822.27.926-.092.286-.998 1.258.23 1.398-.414.077-.353-.459-.87-1.373-1.096 1.515-.586 3.468-1.448 4.555-3.215v2c1 0 1-5 1-7 0-6-1-18-2.5-18-1 0-2 3-6.5 3s-5.5-3-6.5-3z" opacity=".1"/>
  <path d="M17.5 10C16 10 15 21 15 28c0 2.095 0 7 1 7v-2c.799 1.413 2.242 2.768 3.699 3.41-.535.258-.825.618-.768.883.141.644 1.112-.586 1.398.412.104.361.769.339.926.094.702-1.092 1.163.359 1.645-.229.493-.602 1.258-.704 1.891-.039.514.539 1-.807 1.703.285.157.245.822.27.926-.092.286-.998 1.258.23 1.398-.414.077-.353-.459-.87-1.373-1.096 1.515-.586 3.468-1.448 4.555-3.215v2c1 0 1-5 1-7 0-6-1-18-2.5-18-1 0-2 3-6.5 3s-5.5-3-6.5-3z" fill="#343434"/>
  <path d="M20.5 16.5a3 3 0 1 0 2.186 5.053c.347 1.265 1.124 2.947 1.814 2.947.691 0 1.468-1.684 1.814-2.949A2.997 2.997 0 0 0 31.5 19.5a3 3 0 1 0-5.861.9l-2.281.004c.094-.292.142-.597.143-.904a3 3 0 0 0-3-3zm0 2a1 1 0 1 1 0 2 1 1 0 0 1 0-2zm8 0a1 1 0 1 1 0 2 1 1 0 0 1 0-2z" opacity=".1"/>
  <path d="M20 16a3 3 0 0 0-3 3 3 3 0 0 0 3 3 3 3 0 0 0 3-3 3 3 0 0 0-3-3zm0 2a1 1 0 0 1 1 1 1 1 0 0 1-1 1 1 1 0 0 1-1-1 1 1 0 0 1 1-1zM28 16a3 3 0 0 0-3 3 3 3 0 0 0 3 3 3 3 0 0 0 3-3 3 3 0 0 0-3-3zm0 2a1 1 0 0 1 1 1 1 1 0 0 1-1 1 1 1 0 0 1-1-1 1 1 0 0 1 1-1z" fill="#f9f9f9"/>
  <path d="M22 20c0 1 1.078 4 2 4 .922 0 2-3 2-4z" fill="#f9f9f9"/>
</svg>

<svg xmlns="http://www.w3.org/2000/svg" viewBox="0 0 48 48">
 <defs>
  <linearGradient id="linearGradient4209" x1="1" x2="47" gradientUnits="userSpaceOnUse" gradientTransform="translate(-48,0)">
   <stop style="stop-color:#467f34;stop-opacity:1"/>
   <stop offset="1" style="stop-color:#4e8e3a;stop-opacity:1"/>
  </linearGradient>
 </defs>
 <g>
  <path d="m 36.31 5 c 5.859 4.062 9.688 10.831 9.688 18.5 c 0 12.426 -10.07 22.5 -22.5 22.5 c -7.669 0 -14.438 -3.828 -18.5 -9.688 c 1.037 1.822 2.306 3.499 3.781 4.969 c 4.085 3.712 9.514 5.969 15.469 5.969 c 12.703 0 23 -10.298 23 -23 c 0 -5.954 -2.256 -11.384 -5.969 -15.469 c -1.469 -1.475 -3.147 -2.744 -4.969 -3.781 z m 4.969 3.781 c 3.854 4.113 6.219 9.637 6.219 15.719 c 0 12.703 -10.297 23 -23 23 c -6.081 0 -11.606 -2.364 -15.719 -6.219 c 4.16 4.144 9.883 6.719 16.219 6.719 c 12.703 0 23 -10.298 23 -23 c 0 -6.335 -2.575 -12.06 -6.719 -16.219 z" style="opacity:0.05"/>
  <path d="m 41.28 8.781 c 3.712 4.085 5.969 9.514 5.969 15.469 c 0 12.703 -10.297 23 -23 23 c -5.954 0 -11.384 -2.256 -15.469 -5.969 c 4.113 3.854 9.637 6.219 15.719 6.219 c 12.703 0 23 -10.298 23 -23 c 0 -6.081 -2.364 -11.606 -6.219 -15.719 z" style="opacity:0.1"/>
  <path d="m 31.25 2.375 c 8.615 3.154 14.75 11.417 14.75 21.13 c 0 12.426 -10.07 22.5 -22.5 22.5 c -9.708 0 -17.971 -6.135 -21.12 -14.75 a 23 23 0 0 0 44.875 -7 a 23 23 0 0 0 -16 -21.875 z" style="opacity:0.2"/>
 </g>
 <circle cx="-24" cy="24" r="23" transform="matrix(0,-1,1,0,0,0)" style="fill:url(#linearGradient4209);opacity:1;fill-opacity:1;stroke:none;fill-rule:nonzero"/>
 <g>
  <path d="m 40.03 7.531 c 3.712 4.084 5.969 9.514 5.969 15.469 0 12.703 -10.297 23 -23 23 c -5.954 0 -11.384 -2.256 -15.469 -5.969 4.178 4.291 10.01 6.969 16.469 6.969 c 12.703 0 23 -10.298 23 -23 0 -6.462 -2.677 -12.291 -6.969 -16.469 z" style="opacity:0.1"/>
 </g>
 <path d="m 18.5 11 c -1.5 0 -2.5 11 -2.5 18 0 2.095 0 7 1 7 l 0 -2 c 0.799 1.413 2.242 2.768 3.699 3.41 -0.535 0.258 -0.825 0.618 -0.768 0.883 0.141 0.644 1.112 -0.586 1.398 0.412 0.104 0.361 0.769 0.339 0.926 0.094 0.702 -1.092 1.163 0.359 1.645 -0.229 0.493 -0.602 1.258 -0.704 1.891 -0.039 0.514 0.539 1 -0.807 1.703 0.285 0.157 0.245 0.822 0.27 0.926 -0.092 0.286 -0.998 1.258 0.23 1.398 -0.414 0.077 -0.353 -0.459 -0.87 -1.373 -1.096 c 1.515 -0.586 3.468 -1.448 4.555 -3.215 l 0 2 c 1 0 1 -5 1 -7 0 -6 -1 -18 -2.5 -18 -1 0 -2 3 -6.5 3 -4.5 0 -5.5 -3 -6.5 -3 z" style="fill:#000;opacity:0.1;fill-opacity:1;stroke:none;fill-rule:nonzero"/>
 <path d="m 17.5 10 c -1.5 0 -2.5 11 -2.5 18 c 0 2.095 0 7 1 7 l 0 -2 c 0.799 1.413 2.242 2.768 3.699 3.41 -0.535 0.258 -0.825 0.618 -0.768 0.883 0.141 0.644 1.112 -0.586 1.398 0.412 0.104 0.361 0.769 0.339 0.926 0.094 0.702 -1.092 1.163 0.359 1.645 -0.229 0.493 -0.602 1.258 -0.704 1.891 -0.039 0.514 0.539 1 -0.807 1.703 0.285 0.157 0.245 0.822 0.27 0.926 -0.092 0.286 -0.998 1.258 0.23 1.398 -0.414 0.077 -0.353 -0.459 -0.87 -1.373 -1.096 c 1.515 -0.586 3.468 -1.448 4.555 -3.215 l 0 2 c 1 0 1 -5 1 -7 0 -6 -1 -18 -2.5 -18 -1 0 -2 3 -6.5 3 -4.5 0 -5.5 -3 -6.5 -3 z" style="fill:#343434;fill-opacity:1;stroke:none;fill-rule:nonzero"/>
 <path d="m 20.5 16.5 c -1.657 0 -3 1.343 -3 3 0 1.657 1.343 3 3 3 0.828 -0.001 1.619 -0.343 2.186 -0.947 c 0.347 1.265 1.124 2.947 1.814 2.947 c 0.691 0 1.468 -1.684 1.814 -2.949 0.566 0.605 1.357 0.948 2.186 0.949 1.657 0 3 -1.343 3 -3 0 -1.657 -1.343 -3 -3 -3 -1.657 0 -3 1.343 -3 3 0 0.305 0.047 0.609 0.139 0.9 l -2.281 0.004 c 0.094 -0.292 0.142 -0.597 0.143 -0.904 c 0 -1.657 -1.343 -3 -3 -3 z m 0 2 c 0.552 0 1 0.448 1 1 0 0.552 -0.448 1 -1 1 -0.552 0 -1 -0.448 -1 -1 0 -0.552 0.448 -1 1 -1 z m 8 0 c 0.552 0 1 0.448 1 1 0 0.552 -0.448 1 -1 1 -0.552 0 -1 -0.448 -1 -1 0 -0.552 0.448 -1 1 -1 z" style="fill:#000;opacity:0.1;fill-opacity:1;stroke:none"/>
 <path d="M 20 16 A 3 3 0 0 0 17 19 A 3 3 0 0 0 20 22 A 3 3 0 0 0 23 19 A 3 3 0 0 0 20 16 z M 20 18 A 1 1 0 0 1 21 19 A 1 1 0 0 1 20 20 A 1 1 0 0 1 19 19 A 1 1 0 0 1 20 18 z" style="fill:#f9f9f9;opacity:1;fill-opacity:1;stroke:none"/>
 <path d="M 28 16 A 3 3 0 0 0 25 19 A 3 3 0 0 0 28 22 A 3 3 0 0 0 31 19 A 3 3 0 0 0 28 16 z M 28 18 A 1 1 0 0 1 29 19 A 1 1 0 0 1 28 20 A 1 1 0 0 1 27 19 A 1 1 0 0 1 28 18 z" style="fill:#f9f9f9;opacity:1;fill-opacity:1;stroke:none"/>
 <path d="m 22 20 c 0 1 1.078 4 2 4 0.922 0 2 -3 2 -4 z" style="fill:#f9f9f9;opacity:1;fill-opacity:1;stroke:none"/>
</svg>
